src/16/actions/draw-cross.svg

<svg xmlns="http://www.w3.org/2000/svg" width="16" height="16" viewBox="0 0 16 16">
 <defs>
  <style id="current-color-scheme" type="text/css">
   .ColorScheme-Text { color:#565656; } .ColorScheme-Highlight { color:#5294e2; }
  </style>
 </defs>
 <path style="fill:currentColor" class="ColorScheme-Text" d="m6 1c-0.5523 0.0001-0.9999 0.4477-1 1v3h-3c-0.5523 0.0001-0.9999 0.4477-1 1v4c0.0001 0.552 0.4477 1 1 1h3v3c0.0001 0.552 0.4477 1 1 1h4c0.552 0 1-0.448 1-1v-3h3c0.552 0 1-0.448 1-1v-4c0-0.5523-0.448-0.9999-1-1h-3v-3c0-0.5523-0.448-0.9999-1-1h-4zm1 2h2v4h4v2h-4v4h-2v-4h-4v-2h4v-4z"/>
</svg>

<svg xmlns="http://www.w3.org/2000/svg" width="16" height="16"><defs><style id="current-color-scheme" type="text/css"></style></defs><path d="M6 1a1 1 0 0 0-1 1v3H2a1 1 0 0 0-1 1v4a1 1 0 0 0 1 1h3v3a1 1 0 0 0 1 1h4a1 1 0 0 0 1-1v-3h3a1 1 0 0 0 1-1V6a1 1 0 0 0-1-1h-3V2a1 1 0 0 0-1-1H6zm1 2h2v4h4v2H9v4H7V9H3V7h4V3z" fill="currentColor" color="#565656"/></svg>
